src/topics/icons/neo4j.svg

<svg height="290" preserveAspectRatio="xMidYMid" viewBox="0 0 256 290" width="256" xmlns="http://www.w3.org/2000/svg"><path d="m243.289302 131.52645c0 67.1871-54.45755 121.644651-121.644651 121.644651-67.1871006 0-121.644651-54.457551-121.644651-121.644651 0-67.1871012 54.4575504-121.64465155 121.644651-121.64465155 67.187101-.05854264 121.644651 54.45755035 121.644651 121.64465155" fill="#008cc1"/><g fill="#fff"><path d="m53.9266977 91.6261705c0 5.3640931-4.3609303 9.7250235-9.724031 9.7250235-5.3640931 0-9.7250233-4.3609304-9.7250233-9.7250235 0-5.3631007 4.3609302-9.724031 9.7250233-9.724031 5.4216434 0 9.724031 4.3609303 9.724031 9.724031"/><path d="m55.5768062 118.324589c0 5.363101-4.3609302 9.725023-9.724031 9.725023s-9.7250233-4.361922-9.7250233-9.725023 4.3619225-9.724031 9.7250233-9.724031 9.724031 4.302388 9.724031 9.724031"/><path d="m61.5293023 146.614574c0 5.3631-4.3609302 9.724031-9.724031 9.724031s-9.7250232-4.360931-9.7250232-9.724031c0-5.364093 4.3619224-9.725024 9.7250232-9.725024 5.3631008-.058542 9.724031 4.302388 9.724031 9.725024"/><path d="m74.8492403 171.956589c0 5.363101-4.3619225 9.725023-9.7250232 9.725023-5.3631008 0-9.7240311-4.361922-9.7240311-9.725023s4.3609303-9.724031 9.7240311-9.724031c5.3631007-.059535 9.7250232 4.302388 9.7250232 9.724031"/><path d="m178.989643 207.37786c0 5.363101-4.36093 9.724031-9.725023 9.724031-5.363101 0-9.724031-4.36093-9.724031-9.724031 0-5.3631 4.36093-9.725023 9.724031-9.725023 5.364093 0 9.725023 4.361923 9.725023 9.725023"/><path d="m196.670512 186.455318c0 5.363101-4.360931 9.724031-9.725024 9.724031-5.3631 0-9.724031-4.36093-9.724031-9.724031s4.360931-9.725023 9.724031-9.725023c5.364093 0 9.725024 4.361922 9.725024 9.725023"/><path d="m145.396093 38.5250233c0 5.3631007-4.361922 9.724031-9.725023 9.724031s-9.724031-4.3609303-9.724031-9.724031c0-5.3631008 4.36093-9.7240311 9.724031-9.7240311s9.725023 4.3609303 9.725023 9.7240311"/><path d="m119.817922 29.5670078c0 5.3631007-4.361922 9.724031-9.725023 9.724031s-9.724031-4.3609303-9.724031-9.724031c0-5.3631008 4.36093-9.7250233 9.724031-9.7250233s9.725023 4.3619225 9.725023 9.7250233"/></g><path d="m188.773209 37.6994729c35.804279 0 64.82952 29.0262325 64.82952 64.8305111 0 35.80428-29.025241 64.82952-64.82952 64.82952-35.805271 0-64.830511-29.02524-64.830511-64.82952 0-35.8042786 29.02524-64.8305111 64.830511-64.8305111" fill="#66b245"/><path d="m188.773209 169.095938c-36.70524 0-66.566945-29.861705-66.566945-66.565954 0-36.7052398 29.861705-66.565953 66.566945-66.565953 36.704248 0 66.565954 29.8607132 66.565954 66.565953 0 36.704249-29.861706 66.565954-66.565954 66.565954zm0-129.6590388c-34.790201 0-63.094077 28.303876-63.094077 63.0930848 0 34.790202 28.303876 63.093086 63.094077 63.093086 34.790202 0 63.093086-28.302884 63.093086-63.093086 0-34.7892088-28.302884-63.0930848-63.093086-63.0930848z" fill="#fff"/><path d="m99.956093 181.681612c29.29414 0 53.042605 23.747473 53.042605 53.042605 0 29.29414-23.748465 53.042605-53.042605 53.042605-29.2951318 0-53.0426046-23.748465-53.0426046-53.042605 0-29.295132 23.7474728-53.042605 53.0426046-53.042605" fill="#66b245"/><path d="m99.956093 289.503256c-30.2060155 0-54.7790387-24.574016-54.7790387-54.779039 0-30.206015 24.5730232-54.779039 54.7790387-54.779039 30.206016 0 54.779039 24.573024 54.779039 54.779039 0 30.205023-24.573023 54.779039-54.779039 54.779039zm0-106.085209c-28.2899845 0-51.3061705 23.015193-51.3061705 51.30617 0 28.289985 23.016186 51.306171 51.3061705 51.306171 28.289985 0 51.306171-23.016186 51.306171-51.306171 0-28.290977-23.016186-51.30617-51.306171-51.30617z" fill="#fff"/><path d="m56.2842791 1.98449612c19.5294263 0 35.3617364 15.83231008 35.3617364 35.36173648 0 19.5294263-15.8323101 35.3617364-35.3617364 35.3617364-19.5294264 0-35.3617365-15.8323101-35.3617365-35.3617364 0-19.5294264 15.8323101-35.36173648 35.3617365-35.36173648" fill="#66b245"/><path d="m56.2842791 74.4444031c-20.4561861 0-37.0981706-16.6419845-37.0981706-37.0981705 0-20.4561861 16.6419845-37.09817058 37.0981706-37.09817058 20.456186 0 37.0981705 16.64198448 37.0981705 37.09817058 0 20.456186-16.6419845 37.0981705-37.0981705 37.0981705zm0-70.72347287c-18.5411473 0-33.6253024 15.08415507-33.6253024 33.62530237 0 18.5411472 15.0841551 33.6253023 33.6253024 33.6253023s33.6253023-15.0841551 33.6253023-33.6253023c0-18.5411473-15.084155-33.62530237-33.6253023-33.62530237z" fill="#fff"/></svg>

<?xml version="1.0" encoding="UTF-8" standalone="no"?>
<svg width="256px" height="290px" viewBox="0 0 256 290" version="1.1" xmlns="http://www.w3.org/2000/svg" xmlns:xlink="http://www.w3.org/1999/xlink" preserveAspectRatio="xMidYMid">
	<g>
		<path d="M243.289302,131.52645 C243.289302,198.71355 188.831752,253.171101 121.644651,253.171101 C54.4575504,253.171101 0,198.71355 0,131.52645 C0,64.3393488 54.4575504,9.88179845 121.644651,9.88179845 C188.831752,9.82325581 243.289302,64.3393488 243.289302,131.52645" fill="#008CC1"></path>
		<path d="M53.9266977,91.6261705 C53.9266977,96.9902636 49.5657674,101.351194 44.2026667,101.351194 C38.8385736,101.351194 34.4776434,96.9902636 34.4776434,91.6261705 C34.4776434,86.2630698 38.8385736,81.9021395 44.2026667,81.9021395 C49.6243101,81.9021395 53.9266977,86.2630698 53.9266977,91.6261705" fill="#FFFFFF"></path>
		<path d="M55.5768062,118.324589 C55.5768062,123.68769 51.215876,128.049612 45.8527752,128.049612 C40.4896744,128.049612 36.1277519,123.68769 36.1277519,118.324589 C36.1277519,112.961488 40.4896744,108.600558 45.8527752,108.600558 C51.215876,108.600558 55.5768062,112.902946 55.5768062,118.324589" fill="#FFFFFF"></path>
		<path d="M61.5293023,146.614574 C61.5293023,151.977674 57.1683721,156.338605 51.8052713,156.338605 C46.4421705,156.338605 42.0802481,151.977674 42.0802481,146.614574 C42.0802481,141.250481 46.4421705,136.88955 51.8052713,136.88955 C57.1683721,136.831008 61.5293023,141.191938 61.5293023,146.614574" fill="#FFFFFF"></path>
		<path d="M74.8492403,171.956589 C74.8492403,177.31969 70.4873178,181.681612 65.1242171,181.681612 C59.7611163,181.681612 55.400186,177.31969 55.400186,171.956589 C55.400186,166.593488 59.7611163,162.232558 65.1242171,162.232558 C70.4873178,162.173023 74.8492403,166.534946 74.8492403,171.956589" fill="#FFFFFF"></path>
		<path d="M178.989643,207.37786 C178.989643,212.740961 174.628713,217.101891 169.26462,217.101891 C163.901519,217.101891 159.540589,212.740961 159.540589,207.37786 C159.540589,202.01476 163.901519,197.652837 169.26462,197.652837 C174.628713,197.652837 178.989643,202.01476 178.989643,207.37786" fill="#FFFFFF"></path>
		<path d="M196.670512,186.455318 C196.670512,191.818419 192.309581,196.179349 186.945488,196.179349 C181.582388,196.179349 177.221457,191.818419 177.221457,186.455318 C177.221457,181.092217 181.582388,176.730295 186.945488,176.730295 C192.309581,176.730295 196.670512,181.092217 196.670512,186.455318" fill="#FFFFFF"></path>
		<path d="M145.396093,38.5250233 C145.396093,43.888124 141.034171,48.2490543 135.67107,48.2490543 C130.307969,48.2490543 125.947039,43.888124 125.947039,38.5250233 C125.947039,33.1619225 130.307969,28.8009922 135.67107,28.8009922 C141.034171,28.8009922 145.396093,33.1619225 145.396093,38.5250233" fill="#FFFFFF"></path>
		<path d="M119.817922,29.5670078 C119.817922,34.9301085 115.456,39.2910388 110.092899,39.2910388 C104.729798,39.2910388 100.368868,34.9301085 100.368868,29.5670078 C100.368868,24.203907 104.729798,19.8419845 110.092899,19.8419845 C115.456,19.8419845 119.817922,24.203907 119.817922,29.5670078" fill="#FFFFFF"></path>
		<path d="M188.773209,37.6994729 C224.577488,37.6994729 253.602729,66.7257054 253.602729,102.529984 C253.602729,138.334264 224.577488,167.359504 188.773209,167.359504 C152.967938,167.359504 123.942698,138.334264 123.942698,102.529984 C123.942698,66.7257054 152.967938,37.6994729 188.773209,37.6994729" fill="#66B245"></path>
		<path d="M188.773209,169.095938 C152.067969,169.095938 122.206264,139.234233 122.206264,102.529984 C122.206264,65.8247442 152.067969,35.964031 188.773209,35.964031 C225.477457,35.964031 255.339163,65.8247442 255.339163,102.529984 C255.339163,139.234233 225.477457,169.095938 188.773209,169.095938 L188.773209,169.095938 Z M188.773209,39.4368992 C153.983008,39.4368992 125.679132,67.7407752 125.679132,102.529984 C125.679132,137.320186 153.983008,165.62307 188.773209,165.62307 C223.563411,165.62307 251.866295,137.320186 251.866295,102.529984 C251.866295,67.7407752 223.563411,39.4368992 188.773209,39.4368992 L188.773209,39.4368992 Z" fill="#FFFFFF"></path>
		<path d="M99.956093,181.681612 C129.250233,181.681612 152.998698,205.429085 152.998698,234.724217 C152.998698,264.018357 129.250233,287.766822 99.956093,287.766822 C70.6609612,287.766822 46.9134884,264.018357 46.9134884,234.724217 C46.9134884,205.429085 70.6609612,181.681612 99.956093,181.681612" fill="#66B245"></path>
		<path d="M99.956093,289.503256 C69.7500775,289.503256 45.1770543,264.92924 45.1770543,234.724217 C45.1770543,204.518202 69.7500775,179.945178 99.956093,179.945178 C130.162109,179.945178 154.735132,204.518202 154.735132,234.724217 C154.735132,264.92924 130.162109,289.503256 99.956093,289.503256 L99.956093,289.503256 Z M99.956093,183.418047 C71.6661085,183.418047 48.6499225,206.43324 48.6499225,234.724217 C48.6499225,263.014202 71.6661085,286.030388 99.956093,286.030388 C128.246078,286.030388 151.262264,263.014202 151.262264,234.724217 C151.262264,206.43324 128.246078,183.418047 99.956093,183.418047 L99.956093,183.418047 Z" fill="#FFFFFF"></path>
		<path d="M56.2842791,1.98449612 C75.8137054,1.98449612 91.6460155,17.8168062 91.6460155,37.3462326 C91.6460155,56.8756589 75.8137054,72.707969 56.2842791,72.707969 C36.7548527,72.707969 20.9225426,56.8756589 20.9225426,37.3462326 C20.9225426,17.8168062 36.7548527,1.98449612 56.2842791,1.98449612" fill="#66B245"></path>
		<path d="M56.2842791,74.4444031 C35.828093,74.4444031 19.1861085,57.8024186 19.1861085,37.3462326 C19.1861085,16.8900465 35.828093,0.248062016 56.2842791,0.248062016 C76.7404651,0.248062016 93.3824496,16.8900465 93.3824496,37.3462326 C93.3824496,57.8024186 76.7404651,74.4444031 56.2842791,74.4444031 L56.2842791,74.4444031 Z M56.2842791,3.72093023 C37.7431318,3.72093023 22.6589767,18.8050853 22.6589767,37.3462326 C22.6589767,55.8873798 37.7431318,70.9715349 56.2842791,70.9715349 C74.8254264,70.9715349 89.9095814,55.8873798 89.9095814,37.3462326 C89.9095814,18.8050853 74.8254264,3.72093023 56.2842791,3.72093023 L56.2842791,3.72093023 Z" fill="#FFFFFF"></path>
	</g>
</svg>
